wp-content/themes/fundawande/assets/question_icon_yellow.svg

<?xml version="1.0" encoding="UTF-8"?>
<svg width="22px" height="22px" viewBox="0 0 22 22" version="1.1" xmlns="http://www.w3.org/2000/svg" xmlns:xlink="http://www.w3.org/1999/xlink">
    <!-- Generator: sketchtool 51.2 (57519) - http://www.bohemiancoding.com/sketch -->
    <title>08C47725-9222-465A-A9B3-EE2B28776DBD-26602-000004C873A48418</title>
    <desc>Created with sketchtool.</desc>
    <defs></defs>
    <g id="Logging-In---Wireframe-Match" stroke="none" stroke-width="1" fill="none" fill-rule="evenodd">
        <g id="Logging-In---Password-Incorrect-[Tablet]" transform="translate(-422.000000, -647.000000)">
            <g id="Mobile" transform="translate(355.000000, 81.000000)">
                <g id="Message-/-Password-/-Large" transform="translate(0.000000, 468.000000)">
                    <g id="Message">
                        <g id="Link-/-Get-help-/-Grey" transform="translate(68.000000, 96.000000)">
                            <g id="Get-help">
                                <g id="Icon-/-Get-Help-/-Yellow" transform="translate(0.000000, 3.000000)">
                                    <g id="Icon-/-Get-Help-/-Grey">
                                        <g id="question1">
                                            <circle id="Oval" stroke="#EF9D19" stroke-width="1.81818182" fill="#EF9D19" cx="10" cy="10" r="10"></circle>
                                            <circle id="Oval-2" fill="#FFFFFF" cx="10" cy="14.8" r="1.2"></circle>
                                            <path d="M10.5979173,4.05409137 C9.62491094,3.87668073 8.62336446,4.14052454 7.86405177,4.7742911 C7.10473907,5.40805766 6.66607951,6.34629361 6.66666726,7.33534137 C6.66666726,7.79557867 7.0397633,8.16867471 7.50000059,8.16867471 C7.96023788,8.16867471 8.33333392,7.79557867 8.33333392,7.33534137 C8.33283186,6.8390278 8.55355005,6.36831169 8.93542255,6.05129306 C9.31729506,5.73427444 9.82058725,5.60393973 10.3083339,5.69575804 C10.9816679,5.82720952 11.5081324,6.35367407 11.6395839,7.02700804 C11.7731373,7.73471473 11.4370074,8.44815038 10.8062506,8.79575804 C9.79659933,9.32020369 9.16404687,10.3642769 9.16666726,11.502008 C9.16821329,11.7193508 9.25767052,11.9268123 9.41465871,12.0771285 C9.57164691,12.2274447 9.78279557,12.3078133 10.0000006,12.2999247 C10.4672012,12.2819494 10.8359274,11.8966305 10.8333339,11.4290914 C10.8548162,10.9244191 11.1516908,10.4723056 11.6062506,10.252008 C12.8437721,9.57297054 13.5194092,8.18806969 13.2928894,6.79478571 C13.0663696,5.40150173 11.9868124,4.30195997 10.5979173,4.04992471 L10.5979173,4.05409137 Z" id="Shape" fill="#FFFFFF" fill-rule="nonzero"></path>
                                        </g>
                                    </g>
                                </g>
                            </g>
                        </g>
                    </g>
                </g>
            </g>
        </g>
    </g>
</svg>

<svg width="22" height="22" viewBox="0 0 22 22" xmlns="http://www.w3.org/2000/svg"><title>08C47725-9222-465A-A9B3-EE2B28776DBD-26602-000004C873A48418</title><desc>Created with sketchtool.</desc><g transform="translate(1 1)" fill="none"><circle stroke="#EF9D19" stroke-width="1.818" fill="#EF9D19" cx="10" cy="10" r="10"/><circle fill="#fff" cx="10" cy="14.8" r="1.2"/><path d="M10.598 4.054c-.973-.177-1.975.086-2.734.72-.759.634-1.198 1.572-1.197 2.561 0 .46.373.833.833.833.46 0 .833-.373.833-.833-.001-.496.22-.967.602-1.284.382-.317.885-.447 1.373-.356.673.131 1.2.658 1.331 1.331.134.708-.203 1.421-.833 1.769-1.01.524-1.642 1.569-1.64 2.706.002.217.091.425.248.575.157.15.368.231.585.223.467-.018.836-.403.833-.871.021-.505.318-.957.773-1.177 1.238-.679 1.913-2.064 1.687-3.457-.227-1.393-1.306-2.493-2.695-2.745v.004z" fill="#fff" fill-rule="nonzero"/></g></svg>
